icons/mini-assembly.svg

<?xml version="1.0" encoding="UTF-8"?>
<svg width="66px" height="61px" viewBox="0 0 66 61" version="1.1" xmlns="http://www.w3.org/2000/svg" xmlns:xlink="http://www.w3.org/1999/xlink">
    <!-- Generator: sketchtool 42 (36781) - http://www.bohemiancoding.com/sketch -->
    <title>E30C7FCB-31CE-4A72-A1B1-138B3C85CDC3</title>
    <desc>Created with sketchtool.</desc>
    <defs>
        <path d="M0,1.65588378 L0,31.3717565 C0,32.281211 0.726,33.0265201 1.6412,33.0265201 L6.5571,33.0265201 C7.4591,33.0265201 8.1983,32.281211 8.1983,31.3717565 L8.1983,1.65588378 C8.1983,0.745320139 7.4723,1.10482321e-05 6.5571,1.10482321e-05 L1.6456,1.10482321e-05 C0.726,-0.0033162245 0,0.745320139 0,1.65588378 Z" id="path-1"></path>
        <path d="M0,1.65588378 L0,31.3717565 C0,32.281211 0.726,33.0265201 1.6412,33.0265201 L6.5439,33.0265201 C7.4459,33.0265201 8.1851,32.281211 8.1851,31.3717565 L8.1851,1.65588378 C8.1851,0.745320139 7.4591,1.10482321e-05 6.5439,1.10482321e-05 L1.628,1.10482321e-05 C0.726,-0.0033162245 0,0.745320139 0,1.65588378 Z" id="path-3"></path>
        <path d="M0,1.66822811 L0,31.6056277 C0,32.521862 0.681873071,33.2727273 1.5414464,33.2727273 L6.1585536,33.2727273 C7.00572924,33.2727273 7.7,32.521862 7.7,31.6056277 L7.7,1.66822811 C7.7,0.750876375 7.01812693,1.11305948e-05 6.1585536,1.11305948e-05 L1.54557896,1.11305948e-05 C0.698403328,-0.00334094639 0,0.750876375 0,1.66822811 Z" id="path-5"></path>
    </defs>
    <g id="Page-1" stroke="none" stroke-width="1" fill="none" fill-rule="evenodd">
        <g id="Parite-Home" transform="translate(-120.000000, -54.000000)">
            <g id="Group-2-Copy-2" transform="translate(120.000000, 54.000000)">
                <path d="M65.2621933,16.2690775 L59.3907774,13.281578 L46.3762932,6.65074286 L33.5799586,0.13622246 C33.2021874,-0.0454074866 32.7765297,-0.0454074866 32.3987585,0.13622246 L19.6166125,6.65074286 L6.59858114,13.281578 L0.727165238,16.2690775 C0.2837718,16.4927597 0,16.9651765 0,17.4608562 L0,21.9559737 C0,22.6896513 0.585279338,23.2909091 1.32308602,23.2909091 L64.676914,23.2909091 C65.4040792,23.2909091 66,22.6896513 66,21.9559737 L66,17.4608562 C65.9893586,16.9651765 65.7020396,16.4927597 65.2621933,16.2690775 Z M32.9946793,19.9669916 C29.3437777,19.9669916 26.3960981,16.9929131 26.3960981,13.3093146 C26.3960981,9.62571612 29.3437777,6.65074286 32.9946793,6.65074286 C36.6455808,6.65074286 39.5932604,9.62571612 39.5932604,13.3093146 C39.5932604,16.9929131 36.6455808,19.9669916 32.9946793,19.9669916 Z" id="Fill-2-Copy-3" fill="#D3DC4E"></path>
                <g id="Group-52-Copy-3" transform="translate(5.500000, 27.618182)">
                    <path d="M46.3122,1.6957935 L46.3122,31.4116662 C46.3122,32.3211208 47.0382,33.0664299 47.9534,33.0664299 L52.8682,33.0664299 C53.7713,33.0664299 54.5105,32.3211208 54.5105,31.4116662 L54.5105,1.6957935 C54.5105,0.785229864 53.7845,0.0399207726 52.8682,0.0399207726 L47.9534,0.0399207726 C47.0382,0.0365934999 46.3122,0.785229864 46.3122,1.6957935 Z" id="Fill-6" fill="#5878A4"></path>
                    <g id="Rectangle-10" transform="translate(15.400000, 0.109091)">
                        <mask id="mask-2" fill="white">
                            <use xlink:href="#path-1"></use>
                        </mask>
                        <use id="Mask" fill="#D3DC4E" xlink:href="#path-1"></use>
                        <rect fill="#5878A4" mask="url(#mask-2)" x="-4.4" y="22.1818182" width="16.5" height="11.0909091"></rect>
                    </g>
                    <g id="Rectangle-10-Copy-2" transform="translate(30.800000, 0.109091)">
                        <mask id="mask-4" fill="white">
                            <use xlink:href="#path-3"></use>
                        </mask>
                        <use id="Mask" fill="#D3DC4E" xlink:href="#path-3"></use>
                        <rect fill="#5878A4" mask="url(#mask-4)" x="0" y="11.0909091" width="11" height="22.1818182"></rect>
                    </g>
                    <g id="Rectangle-10-Copy" transform="translate(0.000000, 0.109091)">
                        <mask id="mask-6" fill="white">
                            <use xlink:href="#path-5"></use>
                        </mask>
                        <use id="Mask" fill="#D3DC4E" xlink:href="#path-5"></use>
                    </g>
                </g>
            </g>
        </g>
    </g>
</svg>

<svg width="155" height="61" viewBox="0 0 155 61" xmlns="http://www.w3.org/2000/svg" xmlns:xlink="http://www.w3.org/1999/xlink"><title>8DAE862B-7DF6-4BDE-8528-135C031E0A45</title><defs><path d="M0 1.656v29.716c0 .91.726 1.655 1.641 1.655h4.916c.902 0 1.641-.746 1.641-1.655V1.656C8.198.746 7.472 0 6.558 0H1.645A1.644 1.644 0 0 0 0 1.656z" id="a"/><path d="M0 1.656v29.716c0 .91.726 1.655 1.641 1.655h4.903c.902 0 1.641-.746 1.641-1.655V1.656C8.185.746 7.46 0 6.544 0H1.628C.726-.003 0 .745 0 1.656z" id="c"/><path d="M0 1.668v29.938c0 .916.682 1.667 1.541 1.667H6.16c.847 0 1.541-.751 1.541-1.667V1.668C7.7.751 7.018 0 6.159 0H1.546C.698-.003 0 .75 0 1.668z" id="e"/></defs><g fill="none" fill-rule="evenodd"><text font-family="Roboto-Bold, Roboto" font-size="16.632" font-weight="bold" letter-spacing=".693" fill="#5878A3"><tspan x="77.024" y="39">PARITÉ AU </tspan> <tspan x="65" y="54.838" font-size="18.711">POUVOIR</tspan></text><path d="M65.262 16.27l-5.871-2.988L46.376 6.65 33.58.136a1.348 1.348 0 0 0-1.181 0L19.617 6.651 6.599 13.28.727 16.27A1.347 1.347 0 0 0 0 17.461v4.495c0 .734.585 1.335 1.323 1.335h63.354c.727 0 1.323-.601 1.323-1.335v-4.495a1.384 1.384 0 0 0-.738-1.192zm-32.267 3.697c-3.651 0-6.599-2.974-6.599-6.658 0-3.683 2.948-6.658 6.599-6.658 3.65 0 6.598 2.975 6.598 6.658 0 3.684-2.947 6.658-6.598 6.658z" fill="#D3DC4E"/><path d="M51.812 29.314V59.03c0 .91.726 1.655 1.641 1.655h4.915c.903 0 1.642-.746 1.642-1.655V29.314c0-.91-.725-1.656-1.642-1.656h-4.915a1.643 1.643 0 0 0-1.64 1.656z" fill="#5878A4"/><g transform="translate(20.9 27.727)"><mask id="b" fill="#fff"><use xlink:href="#a"/></mask><use fill="#D3DC4E" xlink:href="#a"/><path fill="#5878A4" mask="url(#b)" d="M-4.4 22.182h16.5v11.091H-4.4z"/></g><g transform="translate(36.3 27.727)"><mask id="d" fill="#fff"><use xlink:href="#c"/></mask><use fill="#D3DC4E" xlink:href="#c"/><path fill="#5878A4" mask="url(#d)" d="M0 11.091h11v22.182H0z"/></g><use fill="#D3DC4E" xlink:href="#e" transform="translate(5.5 27.727)"/></g></svg>
